X:1
T:E Major        Jacob French, 1789
T:Isaac Watts, 1717 (Psalm 117)                    86. 86. (C. M.)      
T:Babel
T:Transcribed from  The New American Melody, 1789.
%%score [ 1 2 3 4 ]
L:1/8
Q:1/4=90
M:2/2
K:E
V:1 treble nm="Tr." snm="Tr."
V:2 treble nm="C." snm="C."
V:3 treble-8 nm="T." snm="T."
V:4 bass nm="B." snm="B."
V:1
 z8 | z8 | z4 z2 e2 | c2 c2 d2 e2 | d8 | B4 c2 c<e | f2 f<d ef gf | e6 B2 | c2 c2 B2 B2 | B8 |: %10
w: ||||||||||
 z8 | z8 | z4 B4 | e2 e<c d2 [Ad]<B | B2 cd ec fd | B2 B2 c2 c2 | (d3 f e3 d | c4 B4) | z4 B4 | %19
w: ||In|eve- ry * lang- uage *|learn his * word, * And *|let his name be|sung,~ _ _ _|_ _|And|
 B2 B2 c2 e2 | (d3 f e2 dc | B4) B4 | c2 c2 B2 B2 | B8 :|[M:2/4] B2 BB | e4 | B2 BB | B3 B | %28
w: let his name be|sung,~ _ _ _ _|_ And|let his name be|sung.|His mer- cy|reigns,|His mer- cy|reigns through|
 eB cd | e2 B2 | B2 c2 | de f2 | B2 c2 | Bc dd | eB cc | B2 B2 | B4 | B2 BB | B4 | z4 | z2 B2 | %41
w: eve- * ry *|land; Pro-|claim his|grace * a-|broad, Pro-|cliam his grace a-|broad, Pro- claim his|grace a-|broad.|Firm as the|world||Praise|
[M:3/4] A4 G2 | (c2 B2) B2 | B6 |[M:2/4] e2 ee | e2 B2 | c2 B2 | B2 B2 | %48
w: |||||||
[M:3/4]"^Slow"[Q:1/4=60] A4 G2 | (c2 B2) B2 | B6 |] %51
w: |||
V:2
 B4 G2 G2 | A2 G2 F2 E2 | F6 G2 | F2 G2 AF GE | F8 | E4 G2 G<E | B2 BA GF EF | G6 E2 | %8
w: O all ye|na- tions, praise the|Lord, each|with a dif- * ferent *|tongue;|In eve- ry *|lang- uage * learn * his *|word, and|
 F2 E2 [DF]2 [DF]2 | [EG]8 |: z8 | z8 | z8 | E4 F2 F<D | E2 EF GA BA | G2 GF E2 F2 | G2 GA (B3 A | %17
w: let his name be|sung.||||In eve- ry *|lang- uage * learn * his *|word, And * let his|name be sung,~ _ _|
 G2 E2 F2) z2 | G4 F2 F2 | G2 B2 (A3 G | F4) z4 | G4 G2 G2 | (F2 E2) F4 | G8 :|[M:2/4] z4 | G2 GG | %26
w: _ _ _|And let his|name be sung,~ _|_|And let his|name * be|sung.||His mer- cy|
 G2 F2 | GG GF | E2 F2 | G2 G2 | FG A2 | BG AF | (G2 AG | F2 GA | B2) z E | FE DD | E4 | z4 | %38
w: reigns, His|mer- cy reigns through|eve- ry|land; Pro-|claim * his|grace * a- *|broad,~ _ _|_ _ _|* Pro-|claim his grace a-|broad.||
 z2 G2 | F2 F2 | G2 G2 |[M:3/4] F4 E2 | EFGE F2 | G6 |[M:2/4] G2 GG | G2 G2 | A2 F2 | G2 G2 | %48
w: his|truth shall|stand; Praise|ye the|faith- * * * ful|God.|Firm as the|world his|truth shall|stand: Praise|
[M:3/4] F4 E2 | EFGE [DF]2 | [EG]6 |] %51
w: ye the|faith- * * * ful|God.|
V:3
 B4 e2 e2 | f2 e2 d2 c2 | B6 G2 | A2 G2 F2 E2 | B8 | B4 e2 e<c | d2 d<B c2 c<A | B6 G2 | %8
w: ||||||||
 A2 G2 F2 F2 | E8 |: z8 | z4 B4 | e2 e<c d2 d<B | c2 c<A B2 BA | GA B2 ce df | e6 z2 | z4 B4 | %17
w: |||In|eve- ry * lang- uage *|learn his * word, And *|let * his name * be *|sung,|And|
 e2 c2 de f2 | (B2 e2 d3 f) | e8 | z4 B4 | e4 d4 | c4 d4 | e8 :|[M:2/4] z4 | B2 BB | (e2 d2 | %27
w: let his name be sung,~|_ _ _ _||And|let his|name be|sung.||His mer- cy|reigns~ _|
 e3) d | cB ^A2 | B2 e2 | d2 c2 | B2 cd | (e>d ce | dc B>A | GB AG | F>A GF | E4) | z4 | z2 e2 | %39
w: _ through|eve- * ry|land; Pro-|claim his|grace a- *|broad,~ _ _ _|_ _ _ _|||||his|
 e2 d2 | e2 e2 |[M:3/4] c4 B2 | (A2 G2) F2 | E6 |[M:2/4] B2 BB | B2 e2 | e2 d2 | e2 e2 | %48
w: truth shall|stand; Praise||||||||
[M:3/4] c4 B2 | (A2 G2) F2 | E6 |] %51
w: |||
V:4
 z8 | z8 | z4 z2 E,2 | F,2 E,2 D,2 C,2 | B,,8 | E,4 C,2 C,2 | B,,2 B,,2 C,2 C,D, | E,6 E,2 | %8
w: ||||||||
 A,,2 A,,2 B,,2 B,,2 | E,8 |: z4 B,,4 | E,2 E,<C, D,2 D,<B,, | C,2 C,<A,, B,,2 B,,2 | %13
w: ||In|eve- ry * lang- uage *|learn his * word, And|
 C,2 C,2 B,,2 B,,2 | (E,3 D, C,2) B,,2 | E,2 E,2 A,2 A,2 | (G,3 F, E,4) | z4 B,4 | %18
w: let his name be|sung,~ _ _ And|let his name be|sing,~ _ _|And|
 G,2 E,2 [B,,B,]2 B,,2 | (E,2 G,2 A,3 C | B,4) G,4 | E,4 G,4 | A,4 B,4 | E,8 :|[M:2/4] z4 | %25
w: let his name be|sung,~ _ _ _|_ And|let his|name be|sung.||
 E,2 E,E, | E,2 B,,2 | E,E, E,B, | A,G, F,2 | E,2 E,2 | B,2 A,2 | G,2 F,2 | (E,2 F,E, | %33
w: His mer- cy|reigns, His|mer- cy reigns through|eve- * ry|land, Pro-|claim his|grace a-|broad,~ _ _|
 B,A, G,)F, | E,G, F,E, | B,,4 | E,4 | E,2 E,E, | E,4 | z4 | z2 E,2 |[M:3/4] F,4 G,2 | %42
w: _ _ _ Pro-|claim his grace *|a-|broad.|Firm as the|world||Praise||
 (A,2 B,2) B,,2 | E,6 |[M:2/4] E,2 E,E, | E,2 E,2 | A,2 B,2 | E,2 E,2 |[M:3/4] F,4 G,2 | %49
w: |||||||
 (A,2 B,2) B,,2 | E,6 |] %51
w: ||

